bynom4/images/dest/logo2.svg

<svg width="21" height="18" viewBox="0 0 21 18" fill="none" xmlns="http://www.w3.org/2000/svg">
<path d="M16.1614 8.77463C17.2516 9.01991 18.3145 9.45597 19.1593 10.3008C21.0126 12.1268 20.7673 14.8794 18.587 16.4329C17.3061 17.3323 15.8344 17.7683 14.3082 17.7683C9.62054 17.8228 4.90566 17.7956 0.218029 17.7956C0.163522 17.7956 0.109015 17.7683 0 17.7683C0 11.9633 0 6.15828 0 0.325992C0.163522 0.298738 0.327044 0.271484 0.490566 0.271484C4.79664 0.271484 9.07547 0.271484 13.3815 0.271484C14.8805 0.271484 16.3249 0.571275 17.6331 1.30712C18.805 1.93396 19.6771 2.86058 19.8679 4.22327C20.0859 5.72222 19.4864 6.92138 18.2327 7.76624C17.5786 8.17505 16.8428 8.44758 16.1614 8.77463ZM5.1782 14.4979C7.74004 14.4979 10.2746 14.5252 12.782 14.4706C13.327 14.4434 13.9266 14.1709 14.3899 13.8438C15.153 13.326 15.262 12.3176 14.717 11.609C14.2264 10.9549 13.5178 10.6006 12.7547 10.6006C10.2746 10.5461 7.76729 10.5461 5.25996 10.5189C5.2327 10.5189 5.20545 10.5734 5.15094 10.6006C5.1782 11.8543 5.1782 13.1352 5.1782 14.4979ZM5.15094 7.22117C5.28721 7.24842 5.36897 7.24842 5.45073 7.24842C7.54926 7.24842 9.6478 7.24842 11.7191 7.24842C12.1006 7.24842 12.4822 7.19391 12.8365 7.11215C13.8449 6.86687 14.5262 6.15828 14.5262 5.39517C14.5262 4.60482 13.9266 3.97798 12.9182 3.67819C12.7275 3.62368 12.5367 3.56918 12.3732 3.56918C10.7379 3.54192 9.07547 3.51467 7.44025 3.48742C6.7044 3.48742 5.96855 3.48742 5.20545 3.48742C5.1782 3.7327 5.1782 3.92348 5.1782 4.11425C5.15094 5.14989 5.15094 6.15828 5.15094 7.22117Z" fill="#1F1F1F"/>
</svg>

<svg width="21" height="18" fill="none" xmlns="http://www.w3.org/2000/svg"><path d="M16.161 8.775c1.09.245 2.153.681 2.998 1.526 1.854 1.826 1.608 4.578-.572 6.132a7.363 7.363 0 01-4.279 1.335c-4.687.055-9.402.028-14.09.028-.054 0-.109-.028-.218-.028V.326C.164.299.327.271.49.271h12.892c1.498 0 2.943.3 4.251 1.036 1.172.627 2.044 1.554 2.235 2.916.218 1.5-.382 2.698-1.635 3.543-.654.41-1.39.682-2.072 1.009zM5.178 14.498c2.562 0 5.097.027 7.604-.027.545-.028 1.145-.3 1.608-.627.763-.518.872-1.526.327-2.235-.49-.654-1.2-1.008-1.962-1.008-2.48-.055-4.988-.055-7.495-.082-.027 0-.055.054-.11.082.028 1.253.028 2.534.028 3.897zM5.151 7.22c.136.027.218.027.3.027h6.268c.382 0 .763-.054 1.117-.136 1.009-.245 1.69-.954 1.69-1.717 0-.79-.6-1.417-1.608-1.717-.19-.054-.381-.109-.545-.109L7.44 3.487H5.205c-.027.246-.027.436-.027.627-.027 1.036-.027 2.044-.027 3.107z" fill="#1F1F1F"/></svg>
